build-source/logos/bruzz.light.svg

<?xml version="1.0" encoding="UTF-8"?>
<svg class="logo" width="128" height="30" version="1.1" viewBox="0 0 128 30" xmlns="http://www.w3.org/2000/svg" xmlns:cc="http://creativecommons.org/ns#" xmlns:dc="http://purl.org/dc/elements/1.1/" xmlns:rdf="http://www.w3.org/1999/02/22-rdf-syntax-ns#">
 <metadata>
  <rdf:RDF>
   <cc:Work rdf:about="">
    <dc:format>image/svg+xml</dc:format>
    <dc:type rdf:resource="http://purl.org/dc/dcmitype/StillImage"/>
    <dc:title/>
   </cc:Work>
  </rdf:RDF>
 </metadata>
 <path d="m128 22.68h-13.688l12.416-15.41c0.796-1.177 1.27-2.794 1.27-7.27h-21.534c0 4.476-0.474 6.093-1.27 7.27v1e-3h11.781l-12.526 15.41c-0.983 1.436-1.449 2.662-1.449 7.319h25zm-24.258-15.5c0.789-1.164 1.258-2.761 1.258-7.18h-32.285v18.019c0 2.9-1.381 4.802-4.574 4.802s-4.575-1.902-4.575-4.802v-18.019h-12.01v4.723c-1.565-2.953-4.774-4.723-9.352-4.723h-16.515v3.915c-1.56-2.423-4.82-3.915-9.485-3.915h-16.204v6.703h3.243v16.26h-3.243v6.656h16.347c6.767 0 11.342-2.947 11.342-8.748 0-3.613-2.24-5.705-5.385-6.513v-0.095c2.335-0.666 4.432-2.71 4.432-6.657 0-0.308-0.022-0.608-0.057-0.903h2.23v22.917h8.77v-10.603h2.3l3.955 6.228c2.668 4.232 4.908 4.755 8.434 4.755 0.953 0 1.859-0.19 2.621-0.428v-6.229c-0.286 0.048-0.62 0.048-0.81 0.048-0.905 0-1.763-0.285-2.573-1.426l-3.07-4.508c2.666-1.62 4.105-4.419 4.105-7.996 0-0.981-0.12-1.9-0.338-2.758h2.495v11.363c0 8.654 5.194 11.934 13.342 11.934 8.149 0 12.819-3.281 12.819-11.934v-10.886h13.128l-12.4 15.213c-0.974 1.42-1.434 2.63-1.434 7.226h21.317c0-4.597 0.461-5.807 1.435-7.226h-11.555l12.291-15.214zm-85.742 2.27c0 1.619-0.871 2.55-3.097 2.55h-2.903v-5h2.952c2.128 0 3.048 0.882 3.048 2.45zm0 10.524c0 1.966-1.154 3.026-3.092 3.026h-2.908v-6h2.908c1.938 0 3.092 1.008 3.092 2.975zm26-9.947c0 1.692-0.976 2.973-3.07 2.973h-2.93v-6h2.93c2.14 0 3.07 1.381 3.07 3.028z" fill="#fff" fill-rule="evenodd"/>
</svg>

<svg class="logo" version="1.1" viewBox="0 0 128 30" xmlns="http://www.w3.org/2000/svg">
 <path d="M128 22.68h-13.688l12.416-15.41c.796-1.177 1.27-2.794 1.27-7.27h-21.534c0 4.476-.474 6.093-1.27 7.27v.001h11.781l-12.526 15.41C103.466 24.117 103 25.343 103 30h25v-7.32zM103.742 7.18C104.531 6.016 105 4.419 105 0H72.715v18.019c0 2.9-1.381 4.802-4.574 4.802-3.193 0-4.575-1.902-4.575-4.802V0h-12.01v4.723C49.991 1.77 46.782 0 42.204 0H25.689v3.915C24.129 1.492 20.869 0 16.204 0H0v6.703h3.243v16.26H0v6.656h16.347c6.767 0 11.342-2.947 11.342-8.748 0-3.613-2.24-5.705-5.385-6.513v-.095c2.335-.666 4.432-2.71 4.432-6.657 0-.308-.022-.608-.057-.903h2.23V29.62h8.77V19.017h2.3l3.955 6.228C46.602 29.477 48.842 30 52.368 30c.953 0 1.859-.19 2.621-.428v-6.229c-.286.048-.62.048-.81.048-.905 0-1.763-.285-2.573-1.426l-3.07-4.508c2.666-1.62 4.105-4.419 4.105-7.996 0-.981-.12-1.9-.338-2.758h2.495v11.363C54.798 26.72 59.992 30 68.14 30c8.149 0 12.819-3.281 12.819-11.934V7.18h13.128L81.687 22.393c-.974 1.42-1.434 2.63-1.434 7.226h21.317c0-4.597.461-5.807 1.435-7.226H91.45l12.291-15.214zM18 9.45C18 11.069 17.129 12 14.903 12H12V7h2.952C17.08 7 18 7.882 18 9.45zm0 10.524C18 21.94 16.846 23 14.908 23H12v-6h2.908C16.846 17 18 18.008 18 19.975zm26-9.947C44 11.719 43.024 13 40.93 13H38V7h2.93C43.07 7 44 8.381 44 10.028z" fill="#FFF" fill-rule="evenodd"/>
</svg>
